package/converter/svg/light/microscope.svg

<svg xmlns="http://www.w3.org/2000/svg" viewBox="0 0 512 512"><!-- Font Awesome Pro 6.0.0-alpha2 by @fontawesome - https://fontawesome.com License - https://fontawesome.com/license (Commercial License) --><path d="M496 480H393.906C445.732 445.584 480 386.746 480 320C480 214.125 393.875 128 288 128V64C288 46.326 273.674 32 256 32V16C256 7.164 248.836 0 240 0H176C167.164 0 160 7.164 160 16V32C142.326 32 128 46.326 128 64V288C128 305.674 142.326 320 160 320H256C273.674 320 288 305.674 288 288V160C376.219 160 448 231.781 448 320S376.219 480 288 480H16C7.156 480 0 487.156 0 496S7.156 512 16 512H496C504.844 512 512 504.844 512 496S504.844 480 496 480ZM256 288H160V64C177.674 64 192 49.674 192 32H224C224 49.674 238.328 64 256 64V288ZM240 384C248.844 384 256 376.844 256 368S248.844 352 240 352H176C167.156 352 160 359.156 160 368S167.156 384 176 384H240ZM112 448H304C312.844 448 320 440.844 320 432S312.844 416 304 416H112C103.156 416 96 423.156 96 432S103.156 448 112 448Z"/></svg>

<svg xmlns="http://www.w3.org/2000/svg" viewBox="0 0 512 512"><!--! Font Awesome Pro 6.6.0 by @fontawesome - https://fontawesome.com License - https://fontawesome.com/license (Commercial License) Copyright 2024 Fonticons, Inc. --><path d="M192 0c-17.7 0-32 14.3-32 32c-17.7 0-32 14.3-32 32l0 224c0 17.7 14.3 32 32 32l96 0c17.7 0 32-14.3 32-32l0-128c88.4 0 160 71.6 160 160s-71.6 160-160 160l-80 0L16 480c-8.8 0-16 7.2-16 16s7.2 16 16 16l192 0 80 0 208 0c8.8 0 16-7.2 16-16s-7.2-16-16-16l-101.8 0c51.7-34.4 85.8-93.2 85.8-160c0-106-86-192-192-192l0-64c0-17.7-14.3-32-32-32c0-17.7-14.3-32-32-32L192 0zm0 32l32 0 0 16c0 8.8 7.2 16 16 16l16 0 0 224-96 0 0-224 16 0c8.8 0 16-7.2 16-16l0-16zM160 368c0 8.8 7.2 16 16 16l64 0c8.8 0 16-7.2 16-16s-7.2-16-16-16l-64 0c-8.8 0-16 7.2-16 16zM96 432c0 8.8 7.2 16 16 16l192 0c8.8 0 16-7.2 16-16s-7.2-16-16-16l-192 0c-8.8 0-16 7.2-16 16z"/></svg>
